X: 2
T: The Waterbed
R: reel
M: 4/4
L: 1/8
K: Ador
| EAAE Bc AG | EGDG EDEG | AEGA cA ~A2 | cdec dcAG || EAAE Bc AG | EGDG E2 B/c/d | ecdc AEGA | cAGA EA ~A2 :||: ~e2 dege ~e2 | B/c/deg dc A2 | ~e2 dega ~a2 | gedc AEGA || ~e2 dege ~e2 | B/c/deg dega | gaeg dEGA | cAGA EA ~A2 :|


Tune 328	Setting 26705

